public/hoe-het-net-werkt-logo.svg

<svg xmlns="http://www.w3.org/2000/svg" xml:space="preserve" style="fill-rule:evenodd;clip-rule:evenodd;stroke-linejoin:round;stroke-miterlimit:2" viewBox="0 0 522 347"><path d="M1139.93 0h512v512h-512z" style="fill:none" transform="matrix(1.01873 0 0 .67587 -1161.28 0)"/><path d="m1252.93 191.571 11.2-30.797h2.81l-11.2 30.797h9.84l23.86-65.625h-9.84l-9.94 27.328h-2.81l9.94-27.328h-9.85l-23.86 65.625zM1282.41 192.508c5.02 0 8.49-2.906 10.64-8.812l10.13-27.563c3.28-8.953-1.32-14.719-9.28-14.719-5.02 0-8.44 2.86-10.64 8.813l-10.13 27.562c-3.28 8.954 1.31 14.719 9.28 14.719m-.47-7.5c-.98 0-1.45-.89-.93-2.344l11.62-31.828c.47-1.312.94-1.922 1.73-1.922.99 0 1.46.891.94 2.344l-11.62 31.828c-.47 1.313-.94 1.922-1.74 1.922M1318.51 141.414c-5.02 0-8.44 2.86-10.65 8.813l-10.12 27.562c-3.28 8.954 1.31 14.719 9.28 14.719 5.02 0 8.3-2.812 10.64-8.812l2.77-7.032-8.21-3.937-3.93 10.359c-.52 1.313-.94 1.922-1.74 1.922-.98 0-1.45-.89-.94-2.344l4.6-12.515h12.33c1.73-4.688 3.51-9.328 5.25-14.016 3.32-8.859-1.32-14.719-9.28-14.719m-3.15 22.032h-2.71l4.59-12.61c.47-1.312.94-1.922 1.73-1.922.99 0 1.46.891.94 2.344z" style="fill-rule:nonzero" transform="translate(-1170.74 -122.13)"/><path d="m1229.61 191.571 10.97-26.813c1.73-4.265 4.03-10.125 7.4-19.078l1.03.281c-2.86 8.672-4.68 14.532-5.95 18.797l-7.83 26.813h10.36l30.42-65.625h-9.7l-13.17 31.5a665 665 0 0 0-7.03 17.578l-1.03-.281c2.95-7.969 4.45-12.422 6-17.297l9.89-31.5h-10.04l-13.31 31.5c-2.06 4.875-3.84 9.328-6.94 17.578l-1.03-.281c2.91-7.969 4.41-12.422 5.96-17.297l9.89-31.5h-9.28l-16.97 65.625zM1271.14 191.571l2.9-7.969h-7.59l8.34-22.922h6.19l2.72-7.5h-6.19l7.03-19.266h7.13l2.86-7.968h-16.97l-23.86 65.625zM1282.9 191.571l11.39-31.313h.29c1.73 0 1.78.703-1.13 9.141l-2.91 8.437c-2.9 8.438-3.56 10.782-4.17 13.735h10.5l.42-.938c-.46-1.359 0-3.281 2.96-12.328l2.95-9.047c2.95-9.047 1.69-10.922-1.31-11.906l.09-.938c4.92-.328 7.08-2.109 8.81-6.843l4.5-12.235c2.68-7.312-.46-11.39-8.15-11.39h-10.22l-23.86 65.625zm21.14-58.125h.8c1.31 0 1.74.797 1.22 2.203l-5.44 15c-.51 1.406-1.26 2.109-2.34 2.109h-1.27zM1308.36 191.571l9.28-25.594 4.17-6.375-8.48 31.969h9.51l9.61-42.516 14.25-23.109h-9.23l-15.99 27.797-.89-.422c5.25-10.688 7.64-16.266 9.75-22.125l1.88-5.25h-9.85l-23.86 65.625zM1339.39 191.571l21-57.657h6.23l2.86-7.968h-22.31l-2.86 7.968h6.23l-21 57.657z" style="fill-rule:nonzero" transform="translate(-976.624 150.783)"/><path d="m3814.93 348.984 5.62 5.707 172.14-.009 52.5-144.111 15.63.013 14.98-41.805-5.69-5.749-15.01 41.813-15.73.026-53.27 142.763-165.63-.257z" style="fill:#323232" transform="translate(-3813.027 -84.713)"/><path d="m3976.55 203.102 16.75.032-2.84 7.485-6.56-.029-7.8 21.073-9.99-.079z" style="fill:#323232" transform="translate(-3813.027 -84.713)"/><path d="m3976.55 203.102 16.75.032-2.84 7.485-6.46-.038-11.13 30.539-9.99-.079z" style="fill:#323232" transform="translate(-3837.557 -17.735)"/><path d="m3976.55 203.102 16.75.032-2.84 7.485-6.56-.029-7.8 21.073-9.99-.079z" style="fill:#323232" transform="translate(-3590.798 -84.713)"/><path d="m3976.55 203.102 16.75.032-2.84 7.485-6.46-.038-11.13 30.539-9.99-.079z" style="fill:#323232" transform="translate(-3615.327 -17.735)"/><path d="m4021.5 348.984 5.66 5.707h187.78l52.53-144.094h15.62l15.03-41.919-5.7-5.69-7.15 6.834-13.72 29.084-16.73 2.157-51.7 141.701-174.86-.236" style="fill:#323232" transform="translate(-3813.027 -84.713)"/><path d="m1098.22 191.571 28-76.993h7.04l-28.01 76.993h24.61l59.65-164.063h-24.61l-24.85 68.32h-7.03l24.84-68.32h-24.6l-59.65 164.063z" style="fill:#fff;fill-rule:nonzero" transform="translate(-1056.108 61.747)"/><path d="M149.1 78.255 81.45 264.32H1.79L69.44 78.255zM42.11 253.32l28-76.994h7.04L49.14 253.32h24.61L133.4 89.255h-24.61l-24.85 68.32h-7.03l24.84-68.32h-24.6L17.5 253.32z"/><path d="m1180.01 191.571 7.27-19.922h-18.99l20.86-57.305h15.47l6.8-18.75h-15.47l17.58-48.164h17.81l7.15-19.922h-42.42l-59.65 164.063z" style="fill:#fff;fill-rule:nonzero" transform="translate(-1056.108 61.747)"/><path d="M155.56 146.341H171l-14.77 40.75h-15.48l-12.86 35.306h19l-15.29 41.922h-67l67.65-186.064h65.76l-15.04 41.922h-17.86zM123.9 253.32l7.27-19.922h-18.99l20.86-57.306h15.47l6.8-18.75h-15.47l17.58-48.164h17.81l7.15-19.922h-42.42L80.31 253.32z"/><path d="m1222.32 191.571 52.5-144.141h15.58l7.15-19.922h-55.78l-7.15 19.922h15.59l-52.5 144.141z" style="fill:#fff;fill-rule:nonzero" transform="translate(-1056.108 61.747)"/><path d="M178.39 120.177h-15.51l15.04-41.922h79.16l-15.05 41.922h-15.62l-52.5 144.142h-48.02zM166.21 253.32l52.5-144.142h15.58l7.15-19.922h-55.78l-7.15 19.922h15.59L141.6 253.32z"/><path d="m1304.82 191.571 6.09-16.758c10.78-29.766 26.37-81.563 33.75-107.344l2.7.586c-6.33 24.961-9.03 36.211-10.78 44.531l-16.88 78.985h32.46l59.65-164.063h-24.61l-9.49 27.305c-9.38 26.836-20.98 63.281-30.12 94.922l-2.58-.703c4.81-17.813 8.21-32.11 9.96-40.196l17.93-81.328h-33.04l-59.65 164.063z" style="fill:#fff;fill-rule:nonzero" transform="translate(-1056.108 61.747)"/><path d="M371.4 78.255 303.76 264.32H208.4l67.64-186.064zM248.71 253.32l6.09-16.758c10.78-29.766 26.37-81.564 33.75-107.345l2.7.586c-6.33 24.961-9.03 36.211-10.78 44.531l-16.88 78.986h32.46L355.7 89.255h-24.61l-9.49 27.305c-9.38 26.836-20.98 63.282-30.12 94.923l-2.58-.703c4.81-17.813 8.21-32.11 9.96-40.197l17.93-81.328h-33.04L224.1 253.32z"/><path d="m1402.32 191.571 7.26-19.922h-18.98l20.86-57.305h15.47l6.79-18.75h-15.46l17.57-48.164h17.82l7.14-19.922h-42.42l-59.65 164.063z" style="fill:#fff;fill-rule:nonzero" transform="translate(-1056.108 61.747)"/><path d="M377.87 146.341h15.43l-14.77 40.75h-15.48l-12.85 35.306h18.99l-15.28 41.922h-67l67.65-186.064h65.76l-15.05 41.922h-17.85zM346.21 253.32l7.26-19.922h-18.98l20.86-57.306h15.47l6.79-18.75h-15.46l17.57-48.164h17.82l7.14-19.922h-42.42L302.61 253.32z"/><path d="m1444.62 191.571 52.5-144.141h15.59l7.15-19.922h-55.78l-7.15 19.922h15.58l-52.5 144.141z" style="fill:#fff;fill-rule:nonzero" transform="translate(-1056.108 61.747)"/><path d="M400.69 120.177h-15.51l15.05-41.922h79.15l-15.04 41.922h-15.63l-52.5 144.142h-48.02zM388.51 253.32l52.5-144.142h15.59l7.15-19.922h-55.78l-7.15 19.922h15.58L363.9 253.32z"/><path d="m1777.11 456.137-.43-132.424 85.71 89.707-32.69 6.703 23.4 38.765-22.85 13.572-23.02-41.322z" style="fill:#fff" transform="translate(-1363.404 -144.769)"/><path d="m413.074 178.445 86.3 90.33-32.77 6.719 23.37 38.695-23.2 13.78-23-41.291-30.27 25.115zm.63 132.924 30.12-25 23.02 41.323 22.85-13.572-23.4-38.765 32.69-6.703-85.71-89.707z"/><path d="m1766.09 297.434 117.01 122.459-36.73 7.53 21.19 35.092-41.23 24.486-22.12-39.71-37.53 31.144zm21.45 136.404 12.99-10.78 9.73-8.073 23.91 42.935 4.48-2.659-25.63-42.438 28.66-5.876-54.41-56.955z" style="fill:#fff" transform="translate(-1363.404 -144.769)"/><path d="m408.734 167.683 99.12 103.744-34.42 7.057 22.46 37.19-30.73 18.25-22.63-40.631-33.3 27.632zm9.44 134.129 26.95-22.365 23.4 42.014 14.98-8.895-24.36-40.34 30.97-6.348-72.3-75.67z"/></svg>

<?xml version="1.0" encoding="UTF-8" standalone="no"?>
<!DOCTYPE svg PUBLIC "-//W3C//DTD SVG 1.1//EN" "http://www.w3.org/Graphics/SVG/1.1/DTD/svg11.dtd">
<svg width="100%" height="100%" viewBox="0 0 522 347" version="1.1" xmlns="http://www.w3.org/2000/svg" xmlns:xlink="http://www.w3.org/1999/xlink" xml:space="preserve" xmlns:serif="http://www.serif.com/" style="fill-rule:evenodd;clip-rule:evenodd;stroke-linejoin:round;stroke-miterlimit:2;">
    <g transform="matrix(1,0,0,1,-3697.75,-621.044)">
        <g id="Artboard2" transform="matrix(1.01873,0,0,0.675873,2536.47,621.044)">
            <rect x="1139.93" y="0" width="512" height="512" style="fill:none;"/>
            <g transform="matrix(0.981613,0,0,1.47957,-9.28692,-180.701)">
                <g>
                    <path d="M1252.93,191.571L1264.13,160.774L1266.94,160.774L1255.74,191.571L1265.58,191.571L1289.44,125.946L1279.6,125.946L1269.66,153.274L1266.85,153.274L1276.79,125.946L1266.94,125.946L1243.08,191.571L1252.93,191.571Z" style="fill-rule:nonzero;"/>
                    <path d="M1282.41,192.508C1287.43,192.508 1290.9,189.602 1293.05,183.696L1303.18,156.133C1306.46,147.18 1301.86,141.414 1293.9,141.414C1288.88,141.414 1285.46,144.274 1283.26,150.227L1273.13,177.789C1269.85,186.743 1274.44,192.508 1282.41,192.508ZM1281.94,185.008C1280.96,185.008 1280.49,184.118 1281.01,182.664L1292.63,150.836C1293.1,149.524 1293.57,148.914 1294.36,148.914C1295.35,148.914 1295.82,149.805 1295.3,151.258L1283.68,183.086C1283.21,184.399 1282.74,185.008 1281.94,185.008Z" style="fill-rule:nonzero;"/>
                    <path d="M1318.51,141.414C1313.49,141.414 1310.07,144.274 1307.86,150.227L1297.74,177.789C1294.46,186.743 1299.05,192.508 1307.02,192.508C1312.04,192.508 1315.32,189.696 1317.66,183.696L1320.43,176.664L1312.22,172.727L1308.29,183.086C1307.77,184.399 1307.35,185.008 1306.55,185.008C1305.57,185.008 1305.1,184.118 1305.61,182.664L1310.21,170.149L1322.54,170.149C1324.27,165.461 1326.05,160.821 1327.79,156.133C1331.11,147.274 1326.47,141.414 1318.51,141.414ZM1315.36,163.446L1312.65,163.446L1317.24,150.836C1317.71,149.524 1318.18,148.914 1318.97,148.914C1319.96,148.914 1320.43,149.805 1319.91,151.258L1315.36,163.446Z" style="fill-rule:nonzero;"/>
                    <g transform="matrix(1,0,0,1,194.117,272.914)">
                        <path d="M1229.61,191.571L1240.58,164.758C1242.31,160.493 1244.61,154.633 1247.98,145.68L1249.01,145.961C1246.15,154.633 1244.33,160.493 1243.06,164.758L1235.23,191.571L1245.59,191.571L1276.01,125.946L1266.31,125.946L1253.14,157.446C1251.12,162.321 1249.29,166.774 1246.11,175.024L1245.08,174.743C1248.03,166.774 1249.53,162.321 1251.08,157.446L1260.97,125.946L1250.93,125.946L1237.62,157.446C1235.56,162.321 1233.78,166.774 1230.68,175.024L1229.65,174.743C1232.56,166.774 1234.06,162.321 1235.61,157.446L1245.5,125.946L1236.22,125.946L1219.25,191.571L1229.61,191.571Z" style="fill-rule:nonzero;"/>
                    </g>
                    <g transform="matrix(1,0,0,1,194.117,272.914)">
                        <path d="M1271.14,191.571L1274.04,183.602L1266.45,183.602L1274.79,160.68L1280.98,160.68L1283.7,153.18L1277.51,153.18L1284.54,133.914L1291.67,133.914L1294.53,125.946L1277.56,125.946L1253.7,191.571L1271.14,191.571Z" style="fill-rule:nonzero;"/>
                    </g>
                    <g transform="matrix(1,0,0,1,194.117,272.914)">
                        <path d="M1282.9,191.571L1294.29,160.258L1294.58,160.258C1296.31,160.258 1296.36,160.961 1293.45,169.399L1290.54,177.836C1287.64,186.274 1286.98,188.618 1286.37,191.571L1296.87,191.571L1297.29,190.633C1296.83,189.274 1297.29,187.352 1300.25,178.305L1303.2,169.258C1306.15,160.211 1304.89,158.336 1301.89,157.352L1301.98,156.414C1306.9,156.086 1309.06,154.305 1310.79,149.571L1315.29,137.336C1317.97,130.024 1314.83,125.946 1307.14,125.946L1296.92,125.946L1273.06,191.571L1282.9,191.571ZM1304.04,133.446L1304.84,133.446C1306.15,133.446 1306.58,134.243 1306.06,135.649L1300.62,150.649C1300.11,152.055 1299.36,152.758 1298.28,152.758L1297.01,152.758L1304.04,133.446Z" style="fill-rule:nonzero;"/>
                    </g>
                    <g transform="matrix(1,0,0,1,194.117,272.914)">
                        <path d="M1308.36,191.571L1317.64,165.977L1321.81,159.602L1313.33,191.571L1322.84,191.571L1332.45,149.055L1346.7,125.946L1337.47,125.946L1321.48,153.743L1320.59,153.321C1325.84,142.633 1328.23,137.055 1330.34,131.196L1332.22,125.946L1322.37,125.946L1298.51,191.571L1308.36,191.571Z" style="fill-rule:nonzero;"/>
                    </g>
                    <g transform="matrix(1,0,0,1,194.117,272.914)">
                        <path d="M1339.39,191.571L1360.39,133.914L1366.62,133.914L1369.48,125.946L1347.17,125.946L1344.31,133.914L1350.54,133.914L1329.54,191.571L1339.39,191.571Z" style="fill-rule:nonzero;"/>
                    </g>
                    <g transform="matrix(1,0,0,1,-2642.29,37.4177)">
                        <path d="M3814.93,348.984L3820.55,354.691L3992.69,354.682L4045.19,210.571L4060.82,210.584L4075.8,168.779L4070.11,163.03L4055.1,204.843L4039.37,204.869L3986.1,347.632L3820.47,347.375L3814.93,348.984Z" style="fill:rgb(50,50,50);"/>
                    </g>
                    <g transform="matrix(1,0,0,1,-2642.29,37.4177)">
                        <path d="M3976.55,203.102L3993.3,203.134L3990.46,210.619L3983.9,210.59L3976.1,231.663L3966.11,231.584L3976.55,203.102Z" style="fill:rgb(50,50,50);"/>
                    </g>
                    <g transform="matrix(1,0,0,1,-2666.82,104.396)">
                        <path d="M3976.55,203.102L3993.3,203.134L3990.46,210.619L3984,210.581L3972.87,241.12L3962.88,241.041L3976.55,203.102Z" style="fill:rgb(50,50,50);"/>
                    </g>
                    <g transform="matrix(1,0,0,1,-2420.06,37.4177)">
                        <path d="M3976.55,203.102L3993.3,203.134L3990.46,210.619L3983.9,210.59L3976.1,231.663L3966.11,231.584L3976.55,203.102Z" style="fill:rgb(50,50,50);"/>
                    </g>
                    <g transform="matrix(1,0,0,1,-2444.59,104.396)">
                        <path d="M3976.55,203.102L3993.3,203.134L3990.46,210.619L3984,210.581L3972.87,241.12L3962.88,241.041L3976.55,203.102Z" style="fill:rgb(50,50,50);"/>
                    </g>
                    <g transform="matrix(1,0,0,1,-2642.29,37.4177)">
                        <path d="M4021.5,348.984L4027.16,354.691L4214.94,354.691L4267.47,210.597L4283.09,210.597L4298.12,168.678L4292.42,162.988L4285.27,169.822L4271.55,198.906L4254.82,201.063L4203.12,342.764L4028.26,342.528" style="fill:rgb(50,50,50);"/>
                    </g>
                    <g transform="matrix(1,0,0,1,114.633,183.878)">
                        <path d="M1098.22,191.571L1126.22,114.578L1133.26,114.578L1105.25,191.571L1129.86,191.571L1189.51,27.508L1164.9,27.508L1140.05,95.828L1133.02,95.828L1157.86,27.508L1133.26,27.508L1073.61,191.571L1098.22,191.571Z" style="fill:white;fill-rule:nonzero;"/>
                        <path d="M1205.21,16.508L1137.56,202.571L1057.9,202.571L1125.55,16.508L1205.21,16.508ZM1098.22,191.571L1126.22,114.578L1133.26,114.578L1105.25,191.571L1129.86,191.571L1189.51,27.508L1164.9,27.508L1140.05,95.828L1133.02,95.828L1157.86,27.508L1133.26,27.508L1073.61,191.571L1098.22,191.571Z"/>
                    </g>
                    <g transform="matrix(1,0,0,1,114.633,183.878)">
                        <path d="M1180.01,191.571L1187.28,171.649L1168.29,171.649L1189.15,114.344L1204.62,114.344L1211.42,95.594L1195.95,95.594L1213.53,47.43L1231.34,47.43L1238.49,27.508L1196.07,27.508L1136.42,191.571L1180.01,191.571Z" style="fill:white;fill-rule:nonzero;"/>
                        <path d="M1211.67,84.594L1227.11,84.594L1212.34,125.344L1196.86,125.344L1184,160.649L1203,160.649L1187.71,202.571L1120.71,202.571L1188.36,16.508L1254.12,16.508L1239.08,58.43L1221.22,58.43L1211.67,84.594ZM1180.01,191.571L1187.28,171.649L1168.29,171.649L1189.15,114.344L1204.62,114.344L1211.42,95.594L1195.95,95.594L1213.53,47.43L1231.34,47.43L1238.49,27.508L1196.07,27.508L1136.42,191.571L1180.01,191.571Z"/>
                    </g>
                    <g transform="matrix(1,0,0,1,114.633,183.878)">
                        <path d="M1222.32,191.571L1274.82,47.43L1290.4,47.43L1297.55,27.508L1241.77,27.508L1234.62,47.43L1250.21,47.43L1197.71,191.571L1222.32,191.571Z" style="fill:white;fill-rule:nonzero;"/>
                        <path d="M1234.5,58.43L1218.99,58.43L1234.03,16.508L1313.19,16.508L1298.14,58.43L1282.52,58.43L1230.02,202.571L1182,202.571L1234.5,58.43ZM1222.32,191.571L1274.82,47.43L1290.4,47.43L1297.55,27.508L1241.77,27.508L1234.62,47.43L1250.21,47.43L1197.71,191.571L1222.32,191.571Z"/>
                    </g>
                    <g transform="matrix(1,0,0,1,114.633,183.878)">
                        <path d="M1304.82,191.571L1310.91,174.813C1321.69,145.047 1337.28,93.25 1344.66,67.469L1347.36,68.055C1341.03,93.016 1338.33,104.266 1336.58,112.586L1319.7,191.571L1352.16,191.571L1411.81,27.508L1387.2,27.508L1377.71,54.813C1368.33,81.649 1356.73,118.094 1347.59,149.735L1345.01,149.032C1349.82,131.219 1353.22,116.922 1354.97,108.836L1372.9,27.508L1339.86,27.508L1280.21,191.571L1304.82,191.571Z" style="fill:white;fill-rule:nonzero;"/>
                        <path d="M1427.51,16.508L1359.87,202.571L1264.51,202.571L1332.15,16.508L1427.51,16.508ZM1304.82,191.571L1310.91,174.813C1321.69,145.047 1337.28,93.25 1344.66,67.469L1347.36,68.055C1341.03,93.016 1338.33,104.266 1336.58,112.586L1319.7,191.571L1352.16,191.571L1411.81,27.508L1387.2,27.508L1377.71,54.813C1368.33,81.649 1356.73,118.094 1347.59,149.735L1345.01,149.032C1349.82,131.219 1353.22,116.922 1354.97,108.836L1372.9,27.508L1339.86,27.508L1280.21,191.571L1304.82,191.571Z"/>
                    </g>
                    <g transform="matrix(1,0,0,1,114.633,183.878)">
                        <path d="M1402.32,191.571L1409.58,171.649L1390.6,171.649L1411.46,114.344L1426.93,114.344L1433.72,95.594L1418.26,95.594L1435.83,47.43L1453.65,47.43L1460.79,27.508L1418.37,27.508L1358.72,191.571L1402.32,191.571Z" style="fill:white;fill-rule:nonzero;"/>
                        <path d="M1433.98,84.594L1449.41,84.594L1434.64,125.344L1419.16,125.344L1406.31,160.649L1425.3,160.649L1410.02,202.571L1343.02,202.571L1410.67,16.508L1476.43,16.508L1461.38,58.43L1443.53,58.43L1433.98,84.594ZM1402.32,191.571L1409.58,171.649L1390.6,171.649L1411.46,114.344L1426.93,114.344L1433.72,95.594L1418.26,95.594L1435.83,47.43L1453.65,47.43L1460.79,27.508L1418.37,27.508L1358.72,191.571L1402.32,191.571Z"/>
                    </g>
                    <g transform="matrix(1,0,0,1,114.633,183.878)">
                        <path d="M1444.62,191.571L1497.12,47.43L1512.71,47.43L1519.86,27.508L1464.08,27.508L1456.93,47.43L1472.51,47.43L1420.01,191.571L1444.62,191.571Z" style="fill:white;fill-rule:nonzero;"/>
                        <path d="M1456.8,58.43L1441.29,58.43L1456.34,16.508L1535.49,16.508L1520.45,58.43L1504.82,58.43L1452.32,202.571L1404.3,202.571L1456.8,58.43ZM1444.62,191.571L1497.12,47.43L1512.71,47.43L1519.86,27.508L1464.08,27.508L1456.93,47.43L1472.51,47.43L1420.01,191.571L1444.62,191.571Z"/>
                    </g>
                    <g transform="matrix(1,0,0,1,-192.663,-22.6379)">
                        <path d="M1777.11,456.137L1776.68,323.713L1862.39,413.42L1829.7,420.123L1853.1,458.888L1830.25,472.46L1807.23,431.138L1777.11,456.137Z" style="fill:white;"/>
                    </g>
                    <g transform="matrix(1,0,0,1,-192.663,-22.6379)">
                        <path d="M1776.48,323.213L1862.78,413.544L1830.01,420.262L1853.38,458.957L1830.18,472.737L1807.18,431.446L1776.91,456.561L1776.48,323.213ZM1777.11,456.137L1807.23,431.138L1830.25,472.46L1853.1,458.888L1829.7,420.123L1862.39,413.42L1776.68,323.713L1777.11,456.137Z"/>
                    </g>
                    <g transform="matrix(1,0,0,1,-192.663,-22.6379)">
                        <path d="M1766.09,297.434L1883.1,419.893L1846.37,427.423L1867.56,462.515L1826.33,487.001L1804.21,447.291L1766.68,478.435L1766.09,297.434ZM1787.54,433.838L1800.53,423.058L1810.26,414.985L1834.17,457.92L1838.65,455.261L1813.02,412.823L1841.68,406.947L1787.27,349.992L1787.54,433.838Z" style="fill:white;"/>
                    </g>
                    <g transform="matrix(1,0,0,1,-192.663,-22.6379)">
                        <path d="M1772.14,312.451L1871.26,416.195L1836.84,423.252L1859.3,460.442L1828.57,478.692L1805.94,438.061L1772.64,465.693L1772.14,312.451ZM1781.58,446.58L1808.53,424.215L1831.93,466.229L1846.91,457.334L1822.55,416.994L1853.52,410.646L1781.22,334.976L1781.58,446.58Z"/>
                    </g>
                </g>
            </g>
        </g>
    </g>
</svg>
